X:1
T:Title
%%score { ( 1 3 5 ) | ( 2 4 6 ) }
L:1/8
Q:1/4=100
M:6/8
K:Bb
V:1 treble nm="Grand Piano"
V:3 treble 
V:5 treble 
V:2 bass 
V:4 bass 
V:6 bass 
V:1
 G2 G [GB]2 [GB] | c>d[^Fc] [GB]2 [EG] | [DF]2 [EG] .[DB]2 [B,D_A] | [B,EG]6 | %4
w: Adam~Geibel * * *||||
 [B,EG]2 [B,EG] [B,GB]2 [B,GB] | c>d[^Fc] [GB]2 G | G2 G [^FA][=EG][FA] | B3 c3 | %8
w: ||||
 [Bd]2 [Bd] [Ad]2 [Ac] | B6 | z _AA z A[DA] | z GG z GG | z _AA z A[DA] | z GG .G3 | ._d3 .G3 | %15
w: |||||||
 ._A3 .f3 | ._d3 .G3 | z Cc .e3 | f2 d e2 B | _A>GF G2 [GB] | c3 f3 | B3 e3 | G6 | E6 |] %24
w: |||||||||
V:2
 [E,B,E]2 [E,B,E] [E,B,]2 [E,B,] | [E,A,]2 [E,A,] [E,B,]2 [E,B,] | [B,,B,]2 [B,,B,] z FB,, | E,6 | %4
 E,2 E, E,2 E, | [E,A,]2 [E,A,] [E,B,]2 [E,B,_D] | [D,B,D]2 [D,B,D] [D,D]2 [D,D] | [DG]3 [=EB]3 | %8
 [F,F]2 [F,F] [F,F]2[K:bass] [F,E] | [B,D]6 | z [B,D][F,B,D] z [B,D][B,,B,] | %11
 z[K:treble] [B,E][G,B,E] z E[B,E] | z [B,D][K:bass][F,B,D] z [B,D][B,,B,] | %13
 z [B,E][G,B,E] .[B,E]3 | E,,[E,G,][E,G,_D] E,B,[B,D] | _A,,[E,_A,][E,A,C] A,,[E,A,][E,A,C] | %16
 E,,[E,G,][E,G,_D] E,B,[B,D] | _A,,[E,_A,][E,A,C] .[E,A,C]3 | %18
 [_A,C_A]2 [A,B,F][K:bass] [G,B,E]2 [G,B,E] | [F,CE]2 [B,D] [E,B,E]2 [E,E] | [_A,CE]3 [A,=B,_A]3 | %21
 [_A,B,D]3 [G,B,E]3 | E3 z2 _A, | [E,G,]6 |] %24
V:3
 x6 | .^F3 z3 | x6 | x6 | x6 | .^F3 z3 | x6 | x6 | x6 | x6 | ._A,3 .D,3 | .E,3 .C3 | ._A,3 .D,3 | %13
 .E,3 z3 | z _DB z DE | z Cc z Ce | z _DB z DE | ._A3 z3 | x6 | x6 | x6 | x6 | z3 z2 F | x6 |] %24
V:4
 x6 | x6 | z3 .[B,,F,]3 | x6 | x6 | x6 | x6 | G,6 | x5[K:bass] x | x6 | x6 | x[K:treble] x5 | %12
 x2[K:bass] x4 | x6 | x6 | x6 | x6 | x6 | x3[K:bass] x3 | x6 | x6 | x6 | B,6 | x6 |] %24
V:5
 x6 | x6 | x6 | x6 | x6 | x6 | x6 | x6 | x6 | x6 | x6 | x6 | x6 | x6 | x6 | x6 | x6 | x6 | x6 | %19
 x6 | x6 | x6 | z3 D3 | x6 |] %24
V:6
 x6 | x6 | x6 | x6 | x6 | x6 | x6 | x6 | x5[K:bass] x | x6 | x6 | x[K:treble] x5 | x2[K:bass] x4 | %13
 x6 | x6 | x6 | x6 | x6 | x3[K:bass] x3 | x6 | x6 | x6 | z3 B,,3 | x6 |] %24

